Pods/ProtonCore-UIFoundations/libraries/UIFoundations/Sources/Assets.xcassets/Images/IconSet/ic-lock-open-check-filled.imageset/ic-lock-open-check-filled.svg

<svg width="24" height="24" viewBox="0 0 24 24" fill="none" xmlns="http://www.w3.org/2000/svg">
<path fill-rule="evenodd" clip-rule="evenodd" d="M11.4181 3.09452C12.9565 2.75595 14.5514 3.34354 15.5024 4.59932L15.9021 5.12712C16.1522 5.45733 16.6226 5.52229 16.9528 5.27221C17.283 5.02214 17.348 4.55173 17.0979 4.22153L16.6982 3.69372C15.3936 1.97116 13.206 1.16516 11.0957 1.62958C8.55773 2.18811 6.75 4.43694 6.75 7.03563V7.51152C5.73742 7.52524 5.12955 7.58386 4.63803 7.8343C4.07354 8.12192 3.6146 8.58087 3.32698 9.14535C3 9.78709 3 10.6272 3 12.3073V17.7005C3 19.3807 3 20.2208 3.32698 20.8625C3.6146 21.427 4.07354 21.8859 4.63803 22.1735C5.27976 22.5005 6.11984 22.5005 7.8 22.5005H16.2C17.8802 22.5005 18.7202 22.5005 19.362 22.1735C19.9265 21.8859 20.3854 21.427 20.673 20.8625C21 20.2208 21 19.3807 21 17.7005V12.3073C21 10.6272 21 9.78709 20.673 9.14535C20.3854 8.58087 19.9265 8.12192 19.362 7.8343C18.7202 7.50732 17.8802 7.50732 16.2 7.50732H8.25V7.03563C8.25 5.14114 9.56787 3.5017 11.4181 3.09452ZM17.7805 11.4751C18.0733 11.768 18.0732 12.2429 17.7802 12.5357L11.9923 18.321C11.5823 18.7309 10.9177 18.7309 10.5077 18.321L7.71979 15.5344C7.42683 15.2415 7.42672 14.7667 7.71955 14.4737C8.01238 14.1808 8.48725 14.1806 8.78021 14.4735L11.25 16.9421L16.7198 11.4748C17.0127 11.182 17.4876 11.1821 17.7805 11.4751Z" fill="#0C0C14"/>
</svg>

<svg xmlns="http://www.w3.org/2000/svg" width="24" height="24" viewBox="0 0 24 24">
  <g class="ic-lock-open-check-filled">
    <path fill-rule="evenodd" d="M11.418 3.095a4.035 4.035 0 0 1 4.084 1.504l.4.528a.75.75 0 0 0 1.196-.905l-.4-.528A5.535 5.535 0 0 0 6.75 7.036v.476c-1.013.013-1.62.072-2.112.322a3 3 0 0 0-1.311 1.311C3 9.787 3 10.627 3 12.307v5.394c0 1.68 0 2.52.327 3.162a3 3 0 0 0 1.311 1.31c.642.328 1.482.328 3.162.328h8.4c1.68 0 2.52 0 3.162-.328a3 3 0 0 0 1.311-1.31C21 20.22 21 19.38 21 17.7v-5.394c0-1.68 0-2.52-.327-3.162a3 3 0 0 0-1.311-1.31c-.642-.328-1.482-.328-3.162-.328H8.25v-.471a4.035 4.035 0 0 1 3.168-3.941Zm6.363 8.38a.75.75 0 0 1 0 1.06l-5.789 5.786a1.05 1.05 0 0 1-1.484 0L7.72 15.534a.75.75 0 0 1 1.06-1.06l2.47 2.468 5.47-5.467a.75.75 0 0 1 1.06 0Z" class="Icon"/>
  </g>
</svg>
